X:613
T: Gechang zhude zongsiling
N: C2131
O: China, Hubei Dangyang
S: I, 366]
R: Xiaodiao. Xin minge]
M: 2/4
L: 1/16
K: C
A2AcE2G2 | A2A4G2 | A2AcE2G2 | A8
d4e4 | d3ed2c2 | A2A4d2 | c2d2c2A2
c2EEG2A2 | A4c4 | G3cA2G2 | E8

